src/images/icons/phone.svg

<svg width="24" height="24" viewBox="0 0 24 24" fill="none" xmlns="http://www.w3.org/2000/svg">
  <path d="M21.75 15.91C21.695 15.7495 21.6 15.6056 21.4741 15.4919C21.3481 15.3781 21.1953 15.2984 21.03 15.26L15.03 13.89C14.8671 13.8531 14.6976 13.8575 14.5369 13.9029C14.3762 13.9484 14.2294 14.0333 14.11 14.15C13.97 14.28 13.96 14.29 13.31 15.53C11.1532 14.5362 9.42499 12.8009 8.44 10.64C9.71 10 9.72 10 9.85 9.85C9.96671 9.73056 10.0516 9.58379 10.0971 9.42308C10.1425 9.26238 10.1469 9.09286 10.11 8.93L8.74 3C8.70165 2.8347 8.62186 2.68187 8.50814 2.55591C8.39443 2.42995 8.25053 2.335 8.09 2.28C7.85647 2.19659 7.61531 2.1363 7.37 2.1C7.11725 2.0414 6.85933 2.0079 6.6 2C5.38 2 4.20998 2.48464 3.34731 3.34731C2.48464 4.20998 2 5.38 2 6.6C2.00529 10.6827 3.62949 14.5967 6.5164 17.4836C9.40331 20.3705 13.3173 21.9947 17.4 22C18.0041 22 18.6022 21.881 19.1603 21.6498C19.7184 21.4187 20.2255 21.0798 20.6527 20.6527C21.0798 20.2255 21.4187 19.7184 21.6498 19.1603C21.881 18.6022 22 18.0041 22 17.4C22.0003 17.1455 21.9802 16.8913 21.94 16.64C21.898 16.3916 21.8344 16.1474 21.75 15.91Z" fill="#8F95B3" fill-opacity="0.4"/>
</svg>

<svg width="24" height="24" xmlns="http://www.w3.org/2000/svg" viewBox="0 0 24 24">
	<path fill="#8E94B1" opacity="0.4" d="M21.7,15.9c-0.1-0.2-0.1-0.3-0.3-0.4c-0.1-0.1-0.3-0.2-0.4-0.2l-6-1.4c-0.2,0-0.3,0-0.5,0c-0.2,0-0.3,0.1-0.4,0.2c-0.1,0.1-0.1,0.1-0.8,1.4c-2.2-1-3.9-2.7-4.9-4.9C9.7,10,9.7,10,9.8,9.9c0.1-0.1,0.2-0.3,0.2-0.4c0-0.2,0-0.3,0-0.5L8.7,3c0-0.2-0.1-0.3-0.2-0.4C8.4,2.4,8.3,2.3,8.1,2.3C7.9,2.2,7.6,2.1,7.4,2.1C7.1,2,6.9,2,6.6,2C5.4,2,4.2,2.5,3.3,3.3S2,5.4,2,6.6c0,4.1,1.6,8,4.5,10.9S13.3,22,17.4,22c0.6,0,1.2-0.1,1.8-0.4c0.6-0.2,1.1-0.6,1.5-1c0.4-0.4,0.8-0.9,1-1.5c0.2-0.6,0.4-1.2,0.4-1.8c0-0.3,0-0.5-0.1-0.8C21.9,16.4,21.8,16.1,21.7,15.9z"/>
</svg>
